!!!OTL: DER MAI IST GEKOMMEN
!!!ARE: Europa, Mitteleuropa, Deutschland
!!!SCT: B0512
!!!YEM: Copyright 1995, estate of Helmut Schaffrath.
**kern
*ICvox
*Ivox
*M3/4
*k[b-]
*F:
{8f
8g
=1
4a
4.a
8b-
=2
4dd
4.cc}
{8a
=3
8.cc
16b-
4b-
4cc
=4
2a}
{8f
8g
=5
4a
4.a
8b-
=6
4dd
4.cc}
{8a
=7
8.cc
16b-
4b-
4cc
=8
2a}
{8.a
16a
=9
4g
4.cc
8cc
=10
4bn
4.dd}
{8dd
=11
8.gg
16ff
8.ee
16dd
8.cc
16bn
=12
2cc}
{8cc
8b-
=13
8.a
16a
4.a
8b-
=14
4dd
4.cc}
{8a
=15
8.cc
16b-
4b-
4cc
=16
2a}
==
!!!AGN: Wander - Lied
!!!ONB: ESAC (Essen Associative Code) Database: BOEHME
!!!AMT: simple triple
!!!AIN: vox
!!!EED: Helmut Schaffrath
!!!EEV: 1.0
*-
